public/svgs/duotone/buildings.svg

<svg xmlns="http://www.w3.org/2000/svg" viewBox="0 0 512 512"><!-- Font Awesome Pro 6.0.0-alpha2 by @fontawesome - https://fontawesome.com License - https://fontawesome.com/license (Commercial License) --><defs><style>.fa-secondary{opacity:.4}</style></defs><path d="M48 128.029C21.49 128.029 0 149.52 0 176.029V480.029C0 497.701 14.326 512.029 32 512.029L192 512V128.029H48ZM128 336.029C128 344.865 120.836 352.029 112 352.029H80C71.164 352.029 64 344.865 64 336.029V304.029C64 295.191 71.164 288.029 80 288.029H112C120.836 288.029 128 295.191 128 304.029V336.029ZM128 240.029C128 248.865 120.836 256.029 112 256.029H80C71.164 256.029 64 248.865 64 240.029V208.029C64 199.191 71.164 192.029 80 192.029H112C120.836 192.029 128 199.191 128 208.029V240.029Z" class="fa-secondary"/><path d="M464 0H240C213.49 0 192 21.49 192 48V511.971L480 512C497.674 512 512 497.672 512 480V48C512 21.49 490.51 0 464 0ZM320 304C320 312.836 312.836 320 304 320H272C263.164 320 256 312.836 256 304V272C256 263.162 263.164 256 272 256H304C312.836 256 320 263.162 320 272V304ZM320 208C320 216.836 312.836 224 304 224H272C263.164 224 256 216.836 256 208V176C256 167.162 263.164 160 272 160H304C312.836 160 320 167.162 320 176V208ZM320 112C320 120.836 312.836 128 304 128H272C263.164 128 256 120.836 256 112V80C256 71.162 263.164 64 272 64H304C312.836 64 320 71.162 320 80V112ZM448 304C448 312.836 440.836 320 432 320H400C391.164 320 384 312.836 384 304V272C384 263.162 391.164 256 400 256H432C440.836 256 448 263.162 448 272V304ZM448 208C448 216.836 440.836 224 432 224H400C391.164 224 384 216.836 384 208V176C384 167.162 391.164 160 400 160H432C440.836 160 448 167.162 448 176V208ZM448 112C448 120.836 440.836 128 432 128H400C391.164 128 384 120.836 384 112V80C384 71.162 391.164 64 400 64H432C440.836 64 448 71.162 448 80V112Z" class="fa-primary"/></svg>

<svg xmlns="http://www.w3.org/2000/svg" viewBox="0 0 512 512"><!--! Font Awesome Pro 6.5.1 by @fontawesome - https://fontawesome.com License - https://fontawesome.com/license (Commercial License) Copyright 2023 Fonticons, Inc. --><defs><style>.fa-secondary{opacity:.4}</style></defs><path class="fa-secondary" d="M256 0c-35.3 0-64 28.7-64 64v64H64c-35.3 0-64 28.7-64 64V448c0 35.3 28.7 64 64 64H256 448c35.3 0 64-28.7 64-64V192 64c0-35.3-28.7-64-64-64H256zM64 304c0-8.8 7.2-16 16-16h32c8.8 0 16 7.2 16 16v32c0 8.8-7.2 16-16 16H80c-8.8 0-16-7.2-16-16V304zm208 16c-8.8 0-16-7.2-16-16V272c0-8.8 7.2-16 16-16h32c8.8 0 16 7.2 16 16v32c0 8.8-7.2 16-16 16H272zm112-16V272c0-8.8 7.2-16 16-16h32c8.8 0 16 7.2 16 16v32c0 8.8-7.2 16-16 16H400c-8.8 0-16-7.2-16-16zM80 192h32c8.8 0 16 7.2 16 16v32c0 8.8-7.2 16-16 16H80c-8.8 0-16-7.2-16-16V208c0-8.8 7.2-16 16-16zM256 80c0-8.8 7.2-16 16-16h32c8.8 0 16 7.2 16 16v32c0 8.8-7.2 16-16 16H272c-8.8 0-16-7.2-16-16V80zM400 64h32c8.8 0 16 7.2 16 16v32c0 8.8-7.2 16-16 16H400c-8.8 0-16-7.2-16-16V80c0-8.8 7.2-16 16-16zM256 208V176c0-8.8 7.2-16 16-16h32c8.8 0 16 7.2 16 16v32c0 8.8-7.2 16-16 16H272c-8.8 0-16-7.2-16-16zm144 16c-8.8 0-16-7.2-16-16V176c0-8.8 7.2-16 16-16h32c8.8 0 16 7.2 16 16v32c0 8.8-7.2 16-16 16H400z"/><path class="fa-primary" d="M256 80c0-8.8 7.2-16 16-16h32c8.8 0 16 7.2 16 16v32c0 8.8-7.2 16-16 16H272c-8.8 0-16-7.2-16-16V80zM80 192h32c8.8 0 16 7.2 16 16v32c0 8.8-7.2 16-16 16H80c-8.8 0-16-7.2-16-16V208c0-8.8 7.2-16 16-16zM272 320c-8.8 0-16-7.2-16-16V272c0-8.8 7.2-16 16-16h32c8.8 0 16 7.2 16 16v32c0 8.8-7.2 16-16 16H272zM80 288h32c8.8 0 16 7.2 16 16v32c0 8.8-7.2 16-16 16H80c-8.8 0-16-7.2-16-16V304c0-8.8 7.2-16 16-16zm304 16V272c0-8.8 7.2-16 16-16h32c8.8 0 16 7.2 16 16v32c0 8.8-7.2 16-16 16H400c-8.8 0-16-7.2-16-16zM400 64h32c8.8 0 16 7.2 16 16v32c0 8.8-7.2 16-16 16H400c-8.8 0-16-7.2-16-16V80c0-8.8 7.2-16 16-16zM256 208V176c0-8.8 7.2-16 16-16h32c8.8 0 16 7.2 16 16v32c0 8.8-7.2 16-16 16H272c-8.8 0-16-7.2-16-16zm144 16c-8.8 0-16-7.2-16-16V176c0-8.8 7.2-16 16-16h32c8.8 0 16 7.2 16 16v32c0 8.8-7.2 16-16 16H400z"/></svg>
